X: 1
T:Reverend Brother's Jig, The
T:Port an Bhrathair
T:Monk's Jig, The
T:Sonny Brogan's Fancy
T:Sonny Brogan's #1
R:jig
D:Oisin: Over the Moor to Maggie
M:6/8
L:1/8
K:Ador
ABA c2e|dcd ege|ABA c2e|dcA AGE|!
EAA c2e|dcd ege|~a3 ged|cAG A3:|!
|:eaa aba|gef ged|eaa aba|ged cAA|!
eaa aba|gef ~g3|~a3 ged|cAG A3:|!
